app/assets/images/payment_icons/astrapay.svg

<svg width="38" height="24" role="img" viewBox="0 0 38 24" fill="none" xmlns="http://www.w3.org/2000/svg" aria-labelledby="pi-astrapay"><title id="pi-astrapay">AstraPay</title><g clip-path="url(#pi-astrapay)"><path opacity="0.07" d="M35 0H3C1.3 0 0 1.3 0 3V21C0 22.7 1.4 24 3 24H35C36.7 24 38 22.7 38 21V3C38 1.3 36.6 0 35 0Z" fill="black"/><path d="M35 1C36.1 1 37 1.9 37 3V21C37 22.1 36.1 23 35 23H3C1.9 23 1 22.1 1 21V3C1 1.9 1.9 1 3 1H35Z" fill="white"/><path opacity="0.07" d="M35 0H3C1.3 0 0 1.3 0 3V21C0 22.7 1.4 24 3 24H35C36.7 24 38 22.7 38 21V3C38 1.3 36.6 0 35 0Z" fill="black"/><path d="M35 1C36.1 1 37 1.9 37 3V21C37 22.1 36.1 23 35 23H3C1.9 23 1 22.1 1 21V3C1 1.9 1.9 1 3 1H35Z" fill="white"/><path d="M19.9347 2C20.0181 2.04334 20.0765 2.10334 20.1473 2.12834C20.6749 2.31416 21.1475 2.59834 21.5 3.02916C21.7859 3.37916 22.0126 3.78084 22.2452 4.17166C22.6486 4.84916 23.0378 5.53416 23.4305 6.21834C24.1862 7.53905 24.9389 8.86156 25.6884 10.1858C25.9259 10.605 26.0585 11.0508 26.1126 11.5358C26.1846 12.1624 26.0686 12.7963 25.7793 13.3566C25.2625 14.3734 24.4565 15.0358 23.3021 15.2042C23.1687 15.2234 23.0345 15.2442 22.9004 15.245C20.2815 15.2466 17.6626 15.2516 15.0445 15.2434C14.3245 15.2408 13.6985 14.9584 13.1366 14.51C12.4665 13.975 12.0823 13.2666 11.9181 12.4416C11.7905 11.7984 11.8447 11.1442 12.1398 10.5584C12.5382 9.76666 12.9983 9.00666 13.4343 8.235C13.8326 7.52916 14.2319 6.82416 14.6345 6.12166C15.0379 5.41834 15.4388 4.71334 15.8539 4.0175C16.0639 3.665 16.269 3.29916 16.5374 2.9925C16.8938 2.58008 17.3618 2.27941 17.8852 2.12666C17.9512 2.10365 18.0111 2.06572 18.0602 2.01584C18.6711 2.00084 19.2929 2.00084 19.9347 2.00084V2ZM23.0945 11.8866C23.2754 11.3516 23.2054 10.8366 22.9345 10.3558C22.2735 9.185 21.6143 8.0125 20.9249 6.85834C20.7295 6.52255 20.4492 6.24412 20.112 6.051C19.7748 5.85787 19.3928 5.75687 19.0043 5.75814C18.6157 5.75941 18.2344 5.8629 17.8985 6.05822C17.5625 6.25353 17.284 6.53379 17.0908 6.87084C16.4056 8.0275 15.7405 9.19584 15.0804 10.3684C14.5753 11.2666 14.7928 12.3408 15.573 12.9234C16.3832 13.5266 17.4725 13.4366 18.1935 12.7042C18.3503 12.545 18.4986 12.3758 18.6578 12.2175C18.877 12 19.1462 12 19.3663 12.2175C19.5055 12.355 19.633 12.5025 19.7705 12.6416C20.8107 13.6942 22.5611 13.3108 23.0945 11.8866ZM9 20.5384C9.02917 20.495 9.07335 20.4766 9.08502 20.4458C9.38091 19.6334 9.66847 18.8175 9.97103 18.0075C10.0044 17.9184 10.1077 17.8016 10.1877 17.7942C10.6662 17.7492 10.8329 17.7184 10.9929 18.2108C11.273 19.075 11.5722 19.9325 11.8615 20.7925C11.9339 21.0075 11.8781 21.065 11.6555 21.0892C11.4088 21.1166 11.2846 21.0192 11.2279 20.7834C11.1863 20.6066 11.1155 20.4366 11.0571 20.2625H9.79599C9.74765 20.4258 9.69181 20.5916 9.65014 20.7608C9.56678 21.0975 9.35757 21.19 9.01667 21.0325C9 20.8816 9 20.7208 9 20.5392V20.5384ZM10.6887 19.0584L10.4378 18.3084L9.94603 19.725H10.9121C10.8341 19.504 10.7596 19.2817 10.6887 19.0584ZM27.0328 22C26.8795 21.7858 27.0204 21.6666 27.1537 21.5234C27.3354 21.3284 27.4905 21.1075 27.6013 20.9675C27.4129 20.6192 27.2404 20.3525 27.1186 20.0634C26.952 19.6658 26.8203 19.2516 26.6769 18.8442C26.6353 18.725 26.5711 18.5966 26.7453 18.5175C26.9328 18.4316 27.1286 18.4675 27.2179 18.625C27.2629 18.7034 27.2837 18.7958 27.3154 18.8834C27.4971 19.38 27.6788 19.8775 27.9155 20.3766C28.0322 20.0492 28.1589 19.7258 28.2605 19.3942C28.3381 19.1442 28.3723 18.8808 28.4456 18.6292C28.4965 18.4566 28.6565 18.4634 28.7974 18.4792C28.8574 18.4875 28.9132 18.5308 28.9874 18.5575C29.0041 18.7625 29.0041 18.9658 28.9882 19.1825C28.9585 19.2182 28.9349 19.2584 28.9182 19.3016C28.6915 20.05 28.4231 20.7816 28.0038 21.4475C27.8838 21.6366 27.7472 21.8158 27.6188 22H27.0328ZM22.0335 20.0508C22.0335 20.3325 22.0243 20.5942 22.036 20.8542C22.0443 21.025 21.976 21.09 21.8151 21.0858C21.6459 21.0816 21.4517 21.1184 21.4292 20.865C21.4184 20.75 21.4267 20.6325 21.4267 20.5166C21.4267 19.7334 21.4334 18.9508 21.4225 18.1684C21.42 17.9892 21.4675 17.86 21.6359 17.8225C22.211 17.6934 22.7928 17.6142 23.3337 17.9308C23.828 18.2208 23.8564 18.6042 23.7955 19.0842C23.7388 19.5242 23.3705 19.8475 22.927 19.9058C22.6869 19.9375 22.4435 19.9334 22.2018 19.9558C22.1444 19.9608 22.0902 20.0042 22.0335 20.0508ZM22.0335 18.54V19.4734C22.3502 19.4258 22.6353 19.4092 22.9036 19.3334C23.162 19.26 23.2062 19.0175 23.2012 18.7766C23.1962 18.5484 23.0678 18.3475 22.8436 18.3042C22.5835 18.2542 22.3135 18.2575 22.0335 18.2358V18.5408V18.54ZM24.8065 19.5592C24.9665 19.5442 25.1075 19.5325 25.2483 19.515C25.3816 19.4984 25.5142 19.4734 25.6484 19.4525C25.6784 19.1058 25.4192 18.925 25.1499 18.9542C24.9265 18.9784 24.7082 19.0425 24.4856 19.0766C24.409 19.0884 24.2606 19.0708 24.2565 19.0484C24.2373 18.9325 24.2105 18.74 24.2681 18.7042C24.4398 18.595 24.6456 18.5008 24.8457 18.4808C25.1683 18.45 25.5 18.435 25.8093 18.6C26.0918 18.75 26.2244 18.9834 26.231 19.29C26.2394 19.7175 26.2294 20.1466 26.2344 20.575C26.2368 20.755 26.161 20.8858 26.0051 20.955C25.4967 21.18 24.9765 21.2134 24.4565 20.9958C24.1989 20.8875 24.0089 20.565 24.0289 20.31C24.0572 19.935 24.2631 19.6825 24.6024 19.6034C24.664 19.5884 24.7257 19.5742 24.8065 19.5592ZM24.7424 20.0808C24.5632 20.2758 24.5856 20.5292 24.8274 20.5834C25.0699 20.6375 25.3358 20.5875 25.5917 20.5742C25.6192 20.5725 25.6642 20.5066 25.6667 20.4692C25.6742 20.2858 25.6701 20.1008 25.6701 19.8875C25.345 19.9484 25.0566 20.0025 24.7424 20.0808ZM19.4796 18.4708C19.8305 18.4542 20.1347 18.5184 20.3882 18.7525C20.5398 18.8942 20.6048 19.065 20.6048 19.2692C20.6032 19.7042 20.594 20.14 20.609 20.575C20.6157 20.7866 20.509 20.9008 20.3456 20.9725C19.9312 21.1533 19.4679 21.1894 19.0304 21.075C18.6386 20.9784 18.3885 20.6675 18.3969 20.3184C18.4053 19.9166 18.6753 19.63 19.1245 19.5625C19.4246 19.5175 19.7288 19.49 20.0314 19.4542C20.0097 18.8958 19.6538 18.9184 19.1787 18.9725C19.0829 18.9834 18.9928 19.0384 18.8978 19.0658C18.7845 19.0992 18.6561 19.1958 18.5895 18.995C18.5361 18.835 18.5945 18.6508 18.7562 18.6075C18.9854 18.5458 19.2237 18.515 19.4796 18.4708ZM19.002 20.2884C18.9904 20.4466 19.062 20.5816 19.2079 20.5942C19.4555 20.6158 19.708 20.5916 19.9581 20.5766C19.9873 20.5742 20.0347 20.51 20.0364 20.4725C20.0447 20.2875 20.0397 20.1016 20.0397 19.9208C19.8397 19.9334 19.6646 19.9216 19.5013 19.96C19.3113 20.0034 19.0762 19.9975 19.0012 20.2884H19.002ZM12.7441 18.5675C13.165 18.415 13.5701 18.4366 13.9702 18.5758C14.1369 18.6342 14.2244 18.7716 14.1894 18.9492C14.1635 19.0775 14.106 19.1534 13.9302 19.0892C13.7151 19.01 13.4793 18.9792 13.2492 18.9558C13.0792 18.9375 12.91 19.0325 12.915 19.2042C12.9175 19.2958 13.08 19.4142 13.195 19.4666C13.4551 19.5858 13.7343 19.6625 13.9994 19.7734C14.2761 19.89 14.3077 20.1666 14.3095 20.4058C14.3145 20.5389 14.2766 20.6701 14.2016 20.7802C14.1266 20.8903 14.0184 20.9735 13.8926 21.0175C13.4343 21.1892 12.9725 21.19 12.5241 20.9842C12.2348 20.8508 12.2124 20.62 12.4015 20.4408C12.7225 20.5158 13.0042 20.5942 13.2909 20.6434C13.3767 20.6575 13.4885 20.6116 13.5659 20.56C13.6326 20.515 13.7118 20.4208 13.7076 20.3516C13.7035 20.2716 13.6326 20.1558 13.5609 20.125C13.3225 20.0234 13.0725 19.9475 12.8241 19.8708C12.5607 19.7892 12.3607 19.6492 12.3356 19.3492C12.3065 19.0116 12.3774 18.72 12.7441 18.5675ZM15.2788 19.6484V20.2358C15.2796 20.565 15.4872 20.7158 15.8014 20.6292C15.9123 20.5992 16.0556 20.4566 16.1339 20.675C16.2081 20.8808 16.1373 21.0116 15.9089 21.0834C15.739 21.1388 15.5585 21.1535 15.3817 21.1263C15.2051 21.0991 15.0374 21.0307 14.892 20.9266C14.6836 20.7842 14.6836 20.5184 14.6786 20.2992C14.662 19.53 14.6728 18.7608 14.6704 17.9908C14.6704 17.8766 14.7045 17.8225 14.8295 17.815C15.2196 17.7916 15.2788 17.8416 15.2788 18.2392V18.6016C15.5072 18.6016 15.7147 18.6042 15.9214 18.6008C16.0465 18.5984 16.1473 18.5975 16.1489 18.7758C16.1498 18.9408 16.1223 19.0684 15.9347 19.0775C15.7264 19.0875 15.518 19.08 15.2788 19.08V19.6475V19.6484ZM16.5849 18.89C16.7291 18.7692 16.8549 18.6125 17.0091 18.5734C17.2985 18.5035 17.5959 18.4722 17.8935 18.48C18.1902 18.4875 18.2644 18.6966 18.1377 18.9258L17.2925 19.0375C17.1692 19.0534 17.1358 19.1242 17.1375 19.2458C17.1434 19.7675 17.1416 20.2892 17.1392 20.8108C17.1392 20.9408 17.1866 21.0942 16.9541 21.0892C16.6541 21.0825 16.539 21.0192 16.5357 20.7875C16.5291 20.3889 16.5291 19.9903 16.5357 19.5916C16.5399 19.3625 16.564 19.1342 16.5857 18.8892L16.5849 18.89Z" fill="#0045E5"/><path d="M23.0878 11.9025C22.5611 13.3108 20.8107 13.6942 19.7705 12.6416C19.6338 12.5025 19.5055 12.355 19.3663 12.2175C19.1463 12.0008 18.877 12 18.6578 12.2175C18.4995 12.3758 18.3503 12.545 18.1935 12.7042C17.4725 13.4375 16.3832 13.5266 15.573 12.9234C14.7928 12.3408 14.5753 11.2666 15.0813 10.3684C15.7397 9.19666 16.4065 8.02834 17.0908 6.87084C17.284 6.53379 17.5625 6.25353 17.8985 6.05822C18.2344 5.8629 18.6157 5.75941 19.0043 5.75814C19.3928 5.75687 19.7748 5.85787 20.112 6.051C20.4492 6.24412 20.7295 6.52256 20.9249 6.85834C21.6143 8.0125 22.2735 9.185 22.9345 10.3558C23.2062 10.8366 23.2763 11.3516 23.0878 11.9025ZM20.2215 7.54834C20.1789 7.47334 20.1389 7.39584 20.0923 7.32334C19.9763 7.13917 19.8152 6.98767 19.6243 6.88323C19.4333 6.77877 19.2188 6.72482 19.0012 6.72649C18.7835 6.72816 18.5698 6.78539 18.3805 6.89276C18.1912 7.00014 18.0325 7.15408 17.9193 7.34C17.836 7.475 17.7593 7.615 17.6801 7.75334C17.0916 8.78334 16.4948 9.80834 15.9173 10.845C15.6355 11.35 15.748 11.8616 16.1673 12.1634C16.599 12.4742 17.1525 12.4092 17.5375 12.0042C17.6867 11.8458 17.8368 11.6892 17.9894 11.535C18.1217 11.3988 18.2799 11.2905 18.4548 11.2163C18.6296 11.1421 18.8175 11.1035 19.0075 11.103C19.1974 11.1025 19.3855 11.1399 19.5608 11.2131C19.7361 11.2863 19.8949 11.3937 20.0281 11.5292C20.1506 11.6516 20.2698 11.7784 20.389 11.905C20.8024 12.3475 21.3708 12.4125 21.8251 12.0666C22.2802 11.7216 22.3519 11.2558 22.0335 10.7C21.4367 9.6575 20.8374 8.61666 20.2215 7.54834Z" fill="#EBE60B"/><path d="M20.2306 7.56167C20.8374 8.61667 21.4358 9.6575 22.0335 10.7C22.3519 11.2566 22.2802 11.7216 21.8251 12.0666C21.3708 12.4125 20.8024 12.3475 20.389 11.905C20.2707 11.778 20.1505 11.653 20.0281 11.53C19.895 11.3945 19.7362 11.287 19.5609 11.2137C19.3857 11.1405 19.1975 11.103 19.0076 11.1035C18.8177 11.1039 18.6298 11.1424 18.4549 11.2165C18.28 11.2905 18.1217 11.3988 17.9894 11.535C17.8368 11.6898 17.686 11.8462 17.5367 12.0042C17.1534 12.4092 16.5982 12.4742 16.1673 12.1634C15.748 11.8616 15.6355 11.35 15.9173 10.845C16.4948 9.80917 17.0916 8.78334 17.6801 7.75334C17.7593 7.61584 17.8351 7.47584 17.9193 7.34084C18.0323 7.15482 18.1909 7.00076 18.3802 6.89324C18.5695 6.78572 18.783 6.72832 19.0006 6.72649C19.2184 6.72465 19.4328 6.77844 19.6239 6.88275C19.8149 6.98706 19.9762 7.13842 20.0923 7.3225C20.1389 7.39584 20.1789 7.47334 20.2306 7.56167Z" fill="#0146E4"/></g><defs><clipPath id="pi-astrapay"><rect width="38" height="24" fill="white"/></clipPath></defs></svg>

<svg width="38" height="24" role="img" viewBox="0 0 38 24" fill="none" xmlns="http://www.w3.org/2000/svg" aria-labelledby="pi-astrapay"><title id="pi-astrapay">AstraPay</title><g clip-path="url(#pi-astrapay)"><path opacity=".07" d="M35 0H3C1.3 0 0 1.3 0 3v18c0 1.7 1.4 3 3 3h32c1.7 0 3-1.3 3-3V3c0-1.7-1.4-3-3-3z" fill="#000"/><path d="M35 1c1.1 0 2 .9 2 2v18c0 1.1-.9 2-2 2H3c-1.1 0-2-.9-2-2V3c0-1.1.9-2 2-2h32z" fill="#fff"/><path opacity=".07" d="M35 0H3C1.3 0 0 1.3 0 3v18c0 1.7 1.4 3 3 3h32c1.7 0 3-1.3 3-3V3c0-1.7-1.4-3-3-3z" fill="#000"/><path d="M35 1c1.1 0 2 .9 2 2v18c0 1.1-.9 2-2 2H3c-1.1 0-2-.9-2-2V3c0-1.1.9-2 2-2h32z" fill="#fff"/><path d="M19.935 2c.083.043.142.103.212.128.528.186 1 .47 1.353.901.286.35.513.752.745 1.143.404.677.793 1.362 1.185 2.046.756 1.321 1.509 2.644 2.258 3.968.238.419.37.865.425 1.35a3.178 3.178 0 01-.334 1.82c-.517 1.017-1.323 1.68-2.477 1.848-.133.02-.267.04-.402.041-2.618.002-5.237.007-7.855-.002-.72-.002-1.347-.285-1.908-.733-.67-.535-1.055-1.243-1.219-2.068-.127-.644-.073-1.298.222-1.884.398-.791.858-1.551 1.294-2.323.399-.706.798-1.41 1.2-2.113.404-.704.805-1.409 1.22-2.104.21-.353.415-.719.683-1.025a2.829 2.829 0 011.348-.866.457.457 0 00.175-.111C18.671 2 19.293 2 19.935 2V2zm3.16 9.887c.18-.535.11-1.05-.16-1.531-.662-1.171-1.32-2.344-2.01-3.498a2.213 2.213 0 00-3.834.013 182.755 182.755 0 00-2.01 3.497c-.506.899-.288 1.973.492 2.555.81.604 1.9.514 2.62-.219.157-.159.306-.328.465-.487.219-.217.488-.217.708 0 .14.138.267.285.404.425 1.04 1.052 2.791.669 3.325-.755zM9 20.538c.03-.043.073-.061.085-.092.296-.813.583-1.629.886-2.439.033-.089.137-.205.217-.213.478-.045.645-.076.805.417.28.864.58 1.722.868 2.582.073.215.017.272-.206.296-.246.028-.37-.07-.427-.306-.042-.176-.112-.346-.17-.52H9.795c-.048.163-.104.329-.146.498-.083.337-.292.429-.633.271C9 20.883 9 20.721 9 20.54zm1.689-1.48l-.251-.75-.492 1.417h.966a22.078 22.078 0 01-.223-.667zM27.033 22c-.154-.214-.013-.333.12-.477.182-.195.338-.415.448-.555-.188-.349-.36-.616-.482-.905-.167-.397-.299-.811-.442-1.219-.042-.119-.106-.247.068-.327.188-.085.384-.05.473.108.045.078.066.17.097.258.182.497.364.995.6 1.494.117-.328.244-.651.346-.983.077-.25.111-.513.185-.765.05-.172.21-.166.351-.15.06.009.116.052.19.079.017.204.017.408.001.625a.427.427 0 00-.07.119c-.226.748-.495 1.48-.914 2.146-.12.189-.257.368-.385.552h-.586zm-5-1.95c0 .282-.009.544.003.804.008.171-.06.236-.22.232-.17-.004-.364.032-.387-.221-.01-.115-.002-.232-.002-.348 0-.784.006-1.566-.005-2.349-.002-.179.046-.308.214-.345.575-.13 1.157-.209 1.698.108.494.29.522.673.462 1.153-.057.44-.425.764-.869.822-.24.032-.483.027-.725.05-.058.005-.112.048-.169.095zm0-1.51v.933c.317-.047.602-.064.87-.14.259-.073.303-.316.298-.556-.005-.229-.133-.43-.357-.473-.26-.05-.53-.046-.81-.068v.305-.001zm2.773 1.02c.16-.016.302-.027.442-.045.134-.017.266-.042.4-.063.03-.346-.229-.527-.498-.498-.223.024-.442.088-.664.123-.077.011-.225-.006-.23-.029-.019-.115-.046-.308.012-.344.172-.109.378-.203.578-.223.322-.031.654-.046.963.119.283.15.415.383.422.69.008.428-.002.857.003 1.285.003.18-.073.31-.229.38-.508.225-1.028.258-1.549.04-.257-.108-.447-.43-.427-.685.028-.375.234-.627.573-.707.062-.015.124-.029.204-.044zm-.064.52c-.179.196-.156.45.085.503.243.055.509.005.765-.009.027-.002.072-.067.075-.105.007-.183.003-.368.003-.582-.325.061-.613.116-.928.194zm-5.262-1.61c.35-.016.655.048.908.283a.669.669 0 01.217.516c-.002.435-.011.871.004 1.306.007.212-.1.326-.263.398-.415.18-.878.216-1.316.102-.391-.097-.642-.407-.633-.757.008-.401.278-.688.728-.756.3-.045.604-.072.906-.108-.021-.558-.377-.536-.852-.482-.096.011-.186.066-.281.094-.113.033-.242.13-.308-.071-.054-.16.005-.344.166-.387.23-.062.468-.093.724-.137zm-.478 1.818c-.012.159.06.294.206.306.248.022.5-.002.75-.017.03-.003.077-.067.078-.105.009-.184.004-.37.004-.551-.2.012-.375 0-.539.039-.19.043-.425.037-.5.328h.001zm-6.258-1.72c.421-.153.826-.131 1.226.008.167.058.254.196.22.373-.026.128-.084.204-.26.14-.215-.079-.45-.11-.68-.133-.17-.018-.34.076-.335.248.003.092.165.21.28.263.26.119.54.196.804.306.277.117.309.394.31.633a.624.624 0 01-.416.611c-.459.172-.92.173-1.369-.033-.29-.133-.312-.364-.122-.543.32.075.602.153.889.202.086.014.197-.031.275-.083.067-.045.146-.14.142-.208-.005-.08-.075-.196-.147-.227-.239-.102-.489-.177-.737-.254-.263-.082-.463-.222-.488-.522-.03-.337.041-.629.408-.782zm2.535 1.08v.588c0 .329.208.48.522.393.111-.03.255-.172.333.046.074.206.003.337-.225.408a1.14 1.14 0 01-1.017-.156c-.208-.143-.208-.409-.213-.628-.017-.769-.006-1.538-.009-2.308 0-.114.034-.168.16-.176.39-.023.449.027.449.424v.363c.228 0 .436.002.642-.001.126-.003.226-.003.228.175 0 .165-.027.292-.214.302-.209.01-.417.002-.656.002v.568zm1.306-.758c.144-.12.27-.277.424-.317.29-.07.587-.1.884-.093.297.008.371.217.245.446l-.846.112c-.123.015-.156.086-.155.208.006.521.005 1.043.002 1.565 0 .13.048.283-.185.278-.3-.006-.415-.07-.418-.301a36.118 36.118 0 010-1.196c.004-.23.028-.458.05-.703l-.001.001z" fill="#0045E5"/><path d="M23.088 11.902c-.527 1.409-2.277 1.792-3.318.74-.136-.14-.264-.287-.404-.425-.22-.216-.489-.217-.708 0-.159.159-.308.328-.465.487-.72.733-1.81.823-2.62.22-.78-.583-.998-1.657-.492-2.556a183.54 183.54 0 012.01-3.497 2.213 2.213 0 013.834-.013c.69 1.154 1.348 2.327 2.01 3.498.271.48.341.996.153 1.546zM20.22 7.548c-.042-.075-.082-.152-.129-.225a1.278 1.278 0 00-2.173.017c-.083.135-.16.275-.239.413-.588 1.03-1.185 2.055-1.763 3.092-.281.505-.169 1.017.25 1.318.432.311.985.246 1.37-.159.15-.158.3-.315.452-.469a1.424 1.424 0 012.04-.006c.122.123.24.25.36.376.413.443.982.508 1.436.162.455-.345.527-.811.209-1.367-.597-1.042-1.197-2.083-1.813-3.152z" fill="#EBE60B"/><path d="M20.23 7.562c.607 1.055 1.206 2.096 1.803 3.138.319.557.247 1.022-.208 1.367-.454.345-1.023.28-1.436-.162a15.765 15.765 0 00-.36-.375 1.426 1.426 0 00-2.04.005c-.152.155-.303.311-.452.47-.384.404-.939.47-1.37.158-.419-.301-.532-.813-.25-1.318.578-1.036 1.175-2.062 1.763-3.092.08-.137.155-.277.24-.412a1.277 1.277 0 012.172-.019c.047.074.087.151.139.24z" fill="#0146E4"/></g><defs><clipPath id="pi-astrapay"><path fill="#fff" d="M0 0h38v24H0z"/></clipPath></defs></svg>
